X:1
T:Sunshine and Rain
T:Sunshine and Rain
T:Charles Hutchinson Gabriel
T:Charles Hutchinson Gabriel, 1902
T:Public Domain Courtesy of the Cyber Hymnal™
T:Public Domain Courtesy of the Cyber Hymnal™
C:Charles Hutchinson Gabriel
Z:Public Domain
Z:Courtesy of the Cyber Hymnal™
%%score ( 1 2 ) ( 3 4 )
L:1/8
Q:1/4=95
M:4/4
K:Ab
V:1 treble 
V:2 treble 
V:3 bass 
V:4 bass 
V:1
 [CE]>[CA] [DB]>[CA] [Ec]>[CA] [Fd]>[Ec] | [EB]2 [DF]2 [DB]3 [FA] | %2
w: 1.~Had we on- ly sun- shine all the|year a- round, With-|
w: 2.~Had we not a sor- row or a|cross to bear, For|
w: 3.~Can we prize the sun- shine and de-|plore the rain, Re-|
 [EG]>E [EG]>[GB] [Ge]>[Fd] [DB]>[=D=B] | (z3/2 z2) x7 | [CE]>[CA] [DB]>[CA] [Ec]>[CA] [Fd]>[Ec] | %5
w: out the bless- ing of re- fresh- ing||rain, Would we scat- ter seed up- on|
w: Him who bore the bur- den of our||sin, Would we know the sweet- ness of|
w: pin- ing when the days are dark and||drear? Can we hope for plea- sures yet|
 [DB]2 [DF]2 [DB]3 [FA] | [EG]>E [EG]>[GB] [Ge]>[Fd] [DB]>[Ec] | [CA]6 z2 |: %8
w: the fal- low ground,|And hope to ga- ther flow- ers, fruit|and|
w: His love and care,|Or ev- en strive e- ter- nal joys|to|
w: de- ny the pain,|Or share the joys of life with- out|the|
"^Refrain" [Ge]2 [Fd]>[Fd] [Ec]2 [DB]2 | (3[CA][Ec][DB] (3([CA][EG])[DF] [CE]4 |1 %10
w: grain? Sun- shine and rain,|re- fresh- ing, re- * viv- ing|
w: win? Sun- shine and rain,|to nour- ish the * grow- ing|
w: tear? * * * *||
 [DG]>[DE] [DG]>[GB] [Ge]4 | [Af]>[Ae] [A=d]>[Ae] [Ec]4 :|2 [Ge]>[Fd] [DB]>[Ec] || [CA]6 z2 |] %14
w: rain, Light of faith and|love, show- ers from a-|bove! * * *||
w: grain, Send us, Lord, the|love, ~ ~ ~ ~|~ sun- shine and|the|
w: ||||
V:2
 x8 | x8 | x3/2 E/ x6 | ([Ec]6 A<GF/ E2) | x8 | x8 | x3/2 E/ x6 | x8 |: x8 | x8 |1 x8 | x8 :|2 %12
 x4 || x8 |] %14
V:3
 [A,,A,]>[A,,A,] [A,,A,]>[A,,A,] [A,,A,]>[A,,A,] [A,,A,]>[A,,A,] | [D,F,]2 [D,B,]2 [D,F,]3 [D,B,] | %2
w: ~ ~ ~ ~ ~ ~ ~ ~|~ ~ ~ ~|
 [E,B,]>[E,G,] [E,B,]>[E,B,] [E,B,]>[E,B,] [E,G,]>[E,G,] | (A,4- A,>D) C>B, x5/2 | %4
w: ~ ~ ~ ~ ~ ~ ~ ~|~ * * ~ Would|
 [A,,A,]>[A,,A,] [A,,A,]>[A,,A,] [A,,A,]>[A,,A,] [A,,A,]>[A,,A,] | [D,F,]2 [D,B,]2 [D,F,]3 [D,B,] | %6
w: we scat- ter seed * * * *||
 [E,B,]>[E,G,] [E,B,]>[E,E] [E,B,]>[E,B,] [E,G,]>[E,G,] | [A,,A,]6 z2 |: %8
w: ||
 [E,B,]2 [E,B,]>[E,B,] [E,G,]2 [E,G,]2 | (3[A,,A,][A,,A,][A,,A,] (3:2:2[A,,A,]2 [A,,A,] [A,,A,]4 |1 %10
w: ||
 [B,,E,]>[B,,G,] [E,B,]>[E,D] [E,D]4 | [A,D]>[A,C] [A,=B,]>[A,C] A,4 :|2 %12
w: ||
 [E,B,]>[E,B,] [E,G,]>[E,G,] || [A,,A,]6 z2 |] %14
w: ||
V:4
 x8 | x8 | x8 | [A,,A,]6 x9/2 | x8 | x8 | x8 | x8 |: x8 | x8 |1 x8 | x4 A,4 :|2 x4 || x8 |] %14

